svgs/sharp-solid/blinds-raised.svg

<svg xmlns="http://www.w3.org/2000/svg" viewBox="0 0 512 512"><!--! Font Awesome Pro 6.6.0 by @fontawesome - https://fontawesome.com License - https://fontawesome.com/license (Commercial License) Copyright 2024 Fonticons, Inc. --><path d="M32 0L0 0 0 64l16 0L0 128l128 0 0-64 32 0 0 64 352 0L496 64l16 0 0-64L480 0 32 0zM144 512c26.5 0 48-21.5 48-48c0-20.9-13.4-38.7-32-45.3L160 224l352 0-16-64-336 0 0 64-32 0 0-64L16 160 0 224l128 0 0 194.7c-18.6 6.6-32 24.4-32 45.3c0 26.5 21.5 48 48 48z"/></svg>

<svg xmlns="http://www.w3.org/2000/svg" viewBox="0 0 512 512"><!--! Font Awesome Pro 6.4.0 by @fontawesome - https://fontawesome.com License - https://fontawesome.com/license (Commercial License) Copyright 2023 Fonticons, Inc. --><path d="M32 0H0V64H16L0 128H128V64h32v64H512L496 64h16V0H480 32zM144 512c26.5 0 48-21.5 48-48c0-20.9-13.4-38.7-32-45.3V224H512l-16-64H160v64H128V160H16L0 224H128V418.7c-18.6 6.6-32 24.4-32 45.3c0 26.5 21.5 48 48 48z"/></svg>
